X:1
T:Birmingham (Cunningham), 10.10.10.10
T:Birmingham (Cunningham), 10.10.10.10
T:Francis Cunningham, 1834
T:Public Domain Courtesy of the Cyber Hymnal™
C:Francis Cunningham, 1834
Z:Public Domain
Z:Courtesy of the Cyber Hymnal™
%%score ( 1 2 ) ( 3 4 )
L:1/8
Q:1/4=117
M:4/4
K:Db
V:1 treble 
V:2 treble 
V:3 bass 
V:4 bass 
V:1
 [A,D]4 [DF]2 D2 | A6 [DF]2 | [DB]2 [DA]2 [GB]2 [Gc]2 | [Fd]6 [DA]2 | [DB]4 [DA]4 | %5
 [B,G]2 [DF]2 [CE]2 [Dd]2 | [Ec]4 B4 | [CA]8 | [DA]4 [DB]2 [Ec]2 | [Dd]4 [DA]4 | %10
 [DB]2 [DA]2 [CG]2 [DF]2 | [CE]6 [DF]2 | [DG]2 [DA]2 [DB]2 [Ec]2 | ([Fd]2 cB [DA]2) [EG]2 | %14
 [DF]4 [CE]4 | D8 |] %16
V:2
 x6 D2 | (D2 C2 D2) x2 | x8 | x8 | x8 | x8 | x4 (E2 B,2) | x8 | x8 | x8 | x8 | x8 | x8 | x2 C2 x4 | %14
 x8 | D8 |] %16
V:3
 [D,F,]4 [D,A,]2 [D,F,]2 | ([D,F,]2 [E,G,]2 [F,A,]2) [D,A,]2 | G,2 [F,A,]2 [E,G,]2 [E,G,]2 | %3
 [E,A,]6 [D,F,]2 | [B,,F,]4 [D,F,]4 | [E,G,]2 [F,A,]2 A,2 [F,A,]2 | [E,A,]4 [E,=G,]4 | [A,,A,]8 | %8
 [D,F,]4 G,2 [E,G,]2 | [F,A,]4 [D,F,]4 | G,2 [F,A,]2 [E,A,]2 [D,A,]2 | [A,,A,]6 [D,A,]2 | %12
 [B,,G,]2 [D,F,]2 G,2 [E,G,]2 | ([D,A,]2 [E,G,]2 [F,A,]2) [G,B,]2 | A,4 [A,,G,]4 | [D,F,]8 |] %16
V:4
 x8 | x8 | G,2 x6 | x8 | x8 | x4 A,2 x2 | x8 | x8 | x4 G,2 x2 | x8 | G,2 x6 | x8 | x4 G,2 x2 | x8 | %14
 A,4 x4 | x8 |] %16

